X:1
T:Title
%%score { 1 | 2 }
L:1/8
Q:1/4=180
M:6/8
K:C
V:1 treble nm="Πιάνο, Acoustic Piano" snm="Pno."
V:2 treble 
V:1
"^\n\n" A,/A/^G/A/C/A/ A,/A/B,/B/C/c/ | D/d/^c/d/F/d/ D/d/E/e/F/f/ | %2
 E/e/_e/=e/^G/e/ E/e/^F/^f/^G/^g/ | A/a/^g/a/c/a/ A/a/B/b/c/c'/ | B,/b/^f/b/_e/b/ f/b/e/b/f/b/ | %5
 e/c'/g/c'/e/c'/ g/c'/e/c'/g/c'/ | ^f/_e'/a/e'/f/e'/ a/e'/f/e'/a/e'/ | %7
 g/e'/b/e'/g/e'/ b/e'/g/e'/b/e'/ | f'/d'/b/g/f/d/ B/d/g/b/d'/e'/ | f'/d'/b/g/f/d/ B/d/g/b/d'/e'/ | %10
 f'/g'/e'/f'/d'/e'/ c'/d'/b/c'/a/b/ | g/a/f/g/e/f/ d/e/c/d/B/c/ | A/B/G/A/F/G/ E/F/D/E/C/D/ | %13
 B,/D/^G,/D/=G,/[K:treble]D/ C/_E/G/B/c/_e/ | ^F/A/_E/A/D/A/ G/_B/d/^f/g/_b/ | %15
 ^c/e/A/e/c/e/ A/e/c/e/A/e/ | d/f/A/f/d/f/ A/f/d/f/A/f/ | e/g/A/g/e/g/ A/g/e/g/A/g/ | %18
 f/d'/^c'/d'/a/d'/ f/d'/a/f/d/A/ | ^G/e/_e/=e/b/e/ d'/b/^g/e/f/d/ | c/a/^g/a/e/a/ c/a/e/c/A/E/ | %21
 _E/B/_B/=B/^f/B/ a/f/_e/B/c/A/ | ^G/B/d/f/e/d/ c/B/A/c/e/a/ | ^g/f/e/g/b/d'/ c'/b/a/c'/d'/e'/ | %24
 f'/^c'/d'/f'/g/f'/ e'/=c'/a/g/f/e'/ | d'/_b/=b/d'/e/d'/ c'/a/f/e/_e/c'/ | %26
 b/^g/e/d/^c/_b/ a/f/d/=c/B/a/ | ^g/f/d/c/B/a/ g/f/d/c/B/a/ | ^g/f/d/c/B/A/ ^G/F/E/D/C/B,/ | %29
 A,/A/^G/A/C/A/ A,/A/B,/B/C/c/ | D/d/^c/d/F/d/ D/d/E/e/F/f/ | E/e/_e/=e/^G/e/ E/e/^F/^f/^G/^g/ | %32
 A/a/^g/a/c/a/ A/a/B/b/c/c'/ | _E/B/_B/=B/^f/B/ a/B/_B/=B/f/B/ | a/B/_B/=B/^f/B/ a/f/_e/B/c/A/ | %35
 ^G/d/^c/d/F/d/ E/d/c/d/f/d/ | e/d/^c/d/^g/d/ b/g/e/B/e/d/ | c/E/A/G/F/D/ G/F/E/C/F/E/ | %38
 D/B,/E/D/C/E/ D/^F/E/^G/F/A/ | ^G/B/A/c/B/d/ c/e/d/^f/e/^g/ | ^f/a/^g/b/a/c'/ b/d'/c'/e'/d'/f'/ | %41
 e'/a'/^g'/a'/f'/a'/ e'/a'/g'/a'/f'/a'/ | e'/a'/^g'/a'/f'/a'/ d'/=g'/^f'/g'/e'/g'/ | %43
 c'/f'/e'/f'/d'/f'/ b/e'/_e'/=e'/c'/e'/ | a/c'/^f/a/_e/f/ A/c/^F/A/_E/F/ | %45
 E/C/A/E/c/A/ e/c/a/e/c'/a/ | .e'3 .^g3 | a3 z/ a/^g/a/b/a/ | ^g/d/^c/d/e/d/ c/=g/^f/g/a/g/ | %49
 ^f/c/B/c/d/c/ B/=f/e/f/g/f/ | e/d/f/d/e/d/ a/d/^g/d/b/d/ | e/d/f/d/e/d/ a/d/^g/d/b/d/ | %52
 e/d/f/d/e/d/ ^f/d/e/d/g/d/ | e/d/^g/d/e/d/ a/d/e/d/_b/d/ | b/^g/e/d/B/^G/ E/D/B,/^G,/E/D/ | %55
 C/E/^G/A/B/A/ D/F/G/A/B/A/ | E/_e/=e/c/B/A/ ^G/F/E/D/C/B,/ | A,/A/^G/A/C/A/ A,/A/B,/B/C/c/ | %58
 D/F/_B/d/^c/e/ d/f/=B/d/^G/B/ | A/a/^g/a/c/a/ A/a/B/b/c/c'/ | %60
 d/f/_b/d'/^c'/e'/ d'/f'/=b/d'/^g/b/ | a/c'/e/a/c/e/ d/f/B/d/^G/B/ | %62
 A/c/E/A/C/E/ D/F/[K:bass]B,/D/^G,/B,/ | .A,3 z3 |] %64
V:2
 z6 | z6 | z6 | z6 | z6 | z6 | z6 | z6 | z6 | z6 | z6 | z6 | z6 | z6 | z6 | z6 | z6 | z6 | z6 | %19
 z6 | z6 | z6 | z6 | z6 | z6 | z6 | z6 | z6 | z6 | z6 | z6 | z6 | z6 | z6 | z6 | z6 | z6 | z6 | %38
 z6 | z6 | z6 | z6 | z6 | z6 | z6 | z6 | z3 .[EB]3 | [_Ec]3 z3 | z6 | z6 | z6 | z6 | z6 | z6 | z6 | %55
 z6 | z6 | z6 | z6 | z6 | z6 | z6 | z6 | z6 |] %64

